X: 24504
T: Lucy Farr's
R: barndance
M: 4/4
K: Dmajor
A/|d2 d2 d2 d2|c>de>c A2 A2|e2 e2 e2 e2|d>ef>d A2- A3/2||
f/|g>fg>e c2 g2|f>=f^f>d A2 f2|e>^de>c A>ce>f|e2 d2 d2 (3def|
g2 g>e c2 a>g|f2 f>d A2 f>d|e2 e>c A>ce>c|d2 f2 d2- d3/2||

